apps_souq/herag/site_files/assets/shirt.svg

<svg xmlns="http://www.w3.org/2000/svg" viewBox="0 0 27.1 30.7">
  <path d="M18.1 12.4c.6 0 1.2-.4 1.4-1L22 4.5c.1-.4 0-.8-.2-1.2L20 .6c-.2-.3-.7-.6-1.2-.6H8.3c-.5 0-.9.3-1.2.7L5.4 3.4c-.3.3-.3.7-.3 1.1l2.5 6.8c.3.8 1.2 1.2 1.9.9.2-.1.3-.2.5-.3l3.5-3 3.5 3c.4.3.7.5 1.1.5zm-4.5-6.6l-3.1-4h6.1l-3 4zm-4.5 8.1c-1.3 0-2.4-.8-2.8-2L3.7 5l-2 .7C.7 6 0 7 0 8v19.1c0 2 1.6 3.6 3.6 3.6h9.1v-19l-1.6 1.4c-.6.5-1.3.8-2 .8zm16.3-8.2l-2-.7-2.6 6.9c-.6 1.6-2.3 2.3-3.9 1.8-.3-.1-.6-.3-.9-.5l-1.6-1.4v19h9c2 0 3.6-1.6 3.6-3.6V8c.1-1-.6-2-1.6-2.3zm-7.3 21.7c0 .5-.4.9-.9.9s-.9-.4-.9-.9v-1.2c0-.5.4-.9.9-.9s.9.4.9.9v1.2zm0-4.8c0 .5-.4.9-.9.9s-.9-.4-.9-.9v-1.2c0-.5.4-.9.9-.9s.9.4.9.9v1.2zm0-4.7c0 .5-.4.9-.9.9s-.9-.4-.9-.9v-1.2c0-.5.4-.9.9-.9s.9.4.9.9v1.2z" fill="#0473c0"/>
</svg>

<?xml version="1.0" encoding="utf-8"?>
<!-- Generator: Adobe Illustrator 25.4.1, SVG Export Plug-In . SVG Version: 6.00 Build 0)  -->
<svg version="1.1" id="Layer_1" xmlns="http://www.w3.org/2000/svg" xmlns:xlink="http://www.w3.org/1999/xlink" x="0px" y="0px"
	 viewBox="0 0 27.1 30.7" style="enable-background:new 0 0 27.1 30.7;" xml:space="preserve">
<style type="text/css">
	.st0{fill:#00A884;}
</style>
<path class="st0" d="M18.1,12.4c0.6,0,1.2-0.4,1.4-1L22,4.5c0.1-0.4,0-0.8-0.2-1.2L20,0.6C19.8,0.3,19.3,0,18.8,0H8.3
	C7.8,0,7.4,0.3,7.1,0.7L5.4,3.4C5.1,3.7,5.1,4.1,5.1,4.5l2.5,6.8c0.3,0.8,1.2,1.2,1.9,0.9c0.2-0.1,0.3-0.2,0.5-0.3l3.5-3l3.5,3
	C17.4,12.2,17.7,12.4,18.1,12.4z M13.6,5.8l-3.1-4h6.1L13.6,5.8z M9.1,13.9c-1.3,0-2.4-0.8-2.8-2L3.7,5l-2,0.7C0.7,6,0,7,0,8v19.1
	c0,2,1.6,3.6,3.6,3.6h9.1v-19l-1.6,1.4C10.5,13.6,9.8,13.9,9.1,13.9z M25.4,5.7l-2-0.7l-2.6,6.9c-0.6,1.6-2.3,2.3-3.9,1.8
	c-0.3-0.1-0.6-0.3-0.9-0.5l-1.6-1.4v19h9c2,0,3.6-1.6,3.6-3.6V8C27.1,7,26.4,6,25.4,5.7z M18.1,27.4c0,0.5-0.4,0.9-0.9,0.9
	s-0.9-0.4-0.9-0.9v-1.2c0-0.5,0.4-0.9,0.9-0.9s0.9,0.4,0.9,0.9V27.4z M18.1,22.6c0,0.5-0.4,0.9-0.9,0.9s-0.9-0.4-0.9-0.9v-1.2
	c0-0.5,0.4-0.9,0.9-0.9s0.9,0.4,0.9,0.9V22.6z M18.1,17.9c0,0.5-0.4,0.9-0.9,0.9s-0.9-0.4-0.9-0.9v-1.2c0-0.5,0.4-0.9,0.9-0.9
	s0.9,0.4,0.9,0.9V17.9z"/>
</svg>
